X:1
T:Keep on the Sunny Side of Life
T:Keep on the Sunny Side of Life
T:J. Howard Entwisle
T:Ada J. Blenkhorn, 1899
T:Public Domain Courtesy of the Cyber Hymnal™
T:Public Domain Courtesy of the Cyber Hymnal™
C:J. Howard Entwisle
Z:Public Domain
Z:Courtesy of the Cyber Hymnal™
%%score ( 1 2 ) ( 3 4 )
L:1/8
Q:1/4=100
M:4/4
K:Ab
V:1 treble 
V:2 treble 
V:3 bass 
V:4 bass 
V:1
 E>E | [CA]2 [CA]>[DB] [Ec]>[EA] [DF]>[DA] | [CE]6 [Ec]>[Ed] | [Ae]2 [Ae]>[Ae] [Ee]<[Ec] [EA]2 | %4
w: 1.~There’s a|dark and a trou- bled side of|life; There’s a|bright and a sun- ny side,|
w: 2.~Tho’ the|storm in its fu- ry break to-|day, Crush- ing|hopes that we cher- ished so|
w: 3.~Let us|greet with a song of hope each|day, Tho’ the|mo- ments be cloud- y or|
 [EB]6 [EB]>[Ec] | [Gd]2 [GB]>[GB] [Ge]2 [Gd]>[Gd] | ([Ac]4 [EA]2) [Ec]2 | %7
w: too; Tho’ we|meet with the dark- ness and|strife, * The|
w: dear; Storm and|cloud will in time pass a-|way, * The|
w: fair; Let us|trust in our Sav- ior al-|way, * Who|
 [DB]>[DB] [DB]>[DB] [B,G]2 [DF]>[DG] | [CA]6 z2 ||"^Refrain" [Ee]2 [Ae]>[Ae] [Ae]<[Ac] [EA]2 | %10
w: sun- ny side we al- so may|view.||
w: sun a- gain will shine bright and|clear.|Keep on the sun- ny side,|
w: keep- eth ev- ery one in His|care.||
 [FA]>[FA] [FA]>[FA] [FA]<[DF] [CE]2 | [Ec]2 [Ec]>[Ec] [Fd]<[Ec] [EB]>[EA] | [EB]6 [EB]>[EB] | %13
w: |||
w: Al- ways on the sun- ny side,|Keep on the sun- ny side of|life; It will|
w: |||
 [Ge]>[Ge] [Gd]>[Gd] [Ac]2 [EA]>[EA] | [FB]>[FB] [FA]>[DF] [CE]2 [EA]>[FB] | %15
w: ||
w: help us ev- ery day, It will|bright- en all the way, If we|
w: ||
 [Ec]2 [Ec]>[Ec] [Fd]<[Ec] [Ec]>[DB] | [CA]6 |] %17
w: ||
w: keep on the sun- ny side of|life.|
w: ||
V:2
 E>E | x8 | x8 | x8 | x8 | x8 | x8 | x8 | x8 || x8 | x8 | x8 | x8 | x8 | x8 | x8 | x6 |] %17
V:3
 E,>E, | [A,,E,]2 [A,,A,]>[A,,A,] [A,,A,]>[C,A,] [D,A,]>[F,A,] | A,6 A,>[A,B,] | %3
 [A,C]2 [A,C]>[A,C] [A,C]<A, [C,A,]2 | [E,G,]6 [E,G,]>[E,A,] | %5
 [E,B,]2 [E,E]>[E,E] [E,E]2 [E,E]>[E,E] | (E4 C2) A,2 | [D,F,]>[D,F,] [D,F,]>[D,F,] E,2 E,>E, | %8
 [A,,E,]6 z2 || [A,C]2 [A,C]>[A,C] [A,C]<[A,E] [A,C]2 | %10
 [D,D]>[D,D] [D,D]>[D,D] [D,D]<[D,A,] [A,,A,]2 | %11
 [A,,A,]2 [A,,A,]>[A,,A,] [A,,A,]<[A,,A,] [B,,G,]>[C,A,] | [E,G,]6 [E,G,]>[E,G,] | %13
 [E,B,]>[E,B,] [E,E]>[E,E] [A,E]2 [A,C]>[A,C] | [D,D]>[D,D] [D,D]>[D,A,] [A,,A,]2 [C,A,]>[D,A,] | %15
 [E,A,]2 [E,A,]>[E,A,] [E,A,]<[E,A,] [E,G,]>E, | [A,,E,]6 |] %17
V:4
 E,>E, | x8 | A,6 A,3/2 x/ | x9/2 A,3/2 x2 | x8 | x8 | A,6 A,2 | x4 E,2 E,>E, | x8 || x8 | x8 | %11
 x8 | x8 | x8 | x8 | x15/2 E,/ | x6 |] %17

